custom_files/u163.svg

<svg width="19" height="19" viewBox="-237 638 19 19" xmlns="http://www.w3.org/2000/svg"><path d="M-227.5 638c5.32 0 9.5 4.18 9.5 9.5s-4.18 9.5-9.5 9.5-9.5-4.18-9.5-9.5 4.18-9.5 9.5-9.5z" fill="#aaa5a5"/><path d="M-227.5 638.5c5.04 0 9 3.96 9 9s-3.96 9-9 9-9-3.96-9-9 3.96-9 9-9z" stroke="#797979" fill="none"/></svg>

﻿<?xml version="1.0" encoding="utf-8"?>
<svg version="1.1" xmlns:xlink="http://www.w3.org/1999/xlink" width="19px" height="19px" viewBox="-237 638  19 19" xmlns="http://www.w3.org/2000/svg">
  <path d="M -227.5 638  C -222.18 638  -218 642.18  -218 647.5  C -218 652.82  -222.18 657  -227.5 657  C -232.82 657  -237 652.82  -237 647.5  C -237 642.18  -232.82 638  -227.5 638  Z " fill-rule="nonzero" fill="#aaa5a5" stroke="none" />
  <path d="M -227.5 638.5  C -222.46 638.5  -218.5 642.46  -218.5 647.5  C -218.5 652.54  -222.46 656.5  -227.5 656.5  C -232.54 656.5  -236.5 652.54  -236.5 647.5  C -236.5 642.46  -232.54 638.5  -227.5 638.5  Z " stroke-width="1" stroke="#797979" fill="none" />
</svg>
